!! 00000] TT[WS
!!!OTL: Kai huang
!!!ARE: Asia, China, Shanxi Baode
!! Ethnic Group: Han
!! WII, 242 (1)
!!!SCT: J0764
!!!YEM: Copyright 1995, estate of Helmut Schaffrath.
**kern
*ICvox
*Ivox
*M2/4
*k[b-e-]
*B-:
{8fff
8ddd
8ccc
8ddd
=1
8bb-
8gg
8ff
8cc
=2
8ff
8gg
8bb-
8dd
=3
2cc}
=4
{8fff
8ddd
8ccc
8ddd
=5
8bb-
8gg
8ff
8dd
=6
4ff
4gg
=7
8ccc
8bb-
8gg
8ff}
==
!!!AGN: Xiaodiao. Laodong, Xinminge
!!!ONB: ESAC (Essen Associative Code) Database: CHINA
!!!AMT: simple duple
!!!AIN: vox
!!!EED: Helmut Schaffrath
!!!EEV: 1.0
*-
